X: 8062
T: Steer her up and had her gaun
R: reel
B: Gow's Collection
B: RSCDS 8-6
Z: John Chambers <jc:trillian.mit.edu>
M: 2/4
L: 1/16
%--------------------
K: D
fe \
| "D"d2d2 f3e | defg a2 AG | F2A2 BAGF | "A7"E2E2 c3e \
| "D"d2d2 f3e | defg a2ga | "G"bagf "A7"edec | "D"d2 D4 :|
|: fe \
| "D"d2A2 F3A | dAGA GFED | "C"e2 =c4 E=F | GFED =C2 fe \
| "D"d2A2 F3A | DEFG A2gf | "G"efgf "A7"ecAc | "D"d2 D4 :|
%%center Book08/08061-Steer_her_up_and_had_her_gaun-1.abc

%%sep 1 1 500
%%sep 1 1 500

